X:1
T:Don't Explain
C:Billie Holiday
L:1/8
M:C
I:linebreak $
K:Ab
"Fm6" F2 A2"Dø" z2 cF |"Gø" G4"C7" z4 |"Fm6" F2 A2"Dø" z2 GA |"Gø" G4"C7" z4 |$
"Gb7" e2 d2"F+" z4 |"E7" d2 c2"Eb7sus" z2 cF ||1"Ab" G8- |"Gø" G4"C7" z2 C2 :|2
"Ab" A4"Dø" z4 |"Gø" z4"C7" z4 ||$"F7" ccec"Bbm" d d3 |"Eb7" BBdB"Ab" c4 |
"Db" AAcA"Gø" B B3 |"Db7" GABB"C7" BA G2 |$"F7" ccec"Bbm" d d3 |"Eb7" BBdB"Ab" c4 |
"Db" AAcA"Gø" B B3 |"Db7" GABA"C7" G4 ||$"Fm6" F2 A2"Dø" z2 cF |"Gø" G4"C7" z4 |
"Fm6" F2 A2"Dø" z2 GA |"Gø" G4"C7" z4 |$"Gb7" e2 d2"F+" z4 |"E7" d2 c2"Eb7sus" z2 cF |
"Ab" A8- | A2 z2 z4 |]

